optimized/20/solid/video-camera.svg

<svg xmlns="http://www.w3.org/2000/svg" viewBox="0 0 20 20">
  <path d="M3.25 4C2.00736 4 1 5.00736 1 6.25V13.75C1 14.9926 2.00736 16 3.25 16H10.75C11.9926 16 13 14.9926 13 13.75V6.25C13 5.00736 11.9926 4 10.75 4H3.25Z"/>
  <path d="M19 4.75002C19 4.44668 18.8173 4.1732 18.537 4.05711C18.2568 3.94103 17.9342 4.00519 17.7197 4.21969L14.7197 7.21969C14.579 7.36034 14.5 7.55111 14.5 7.75002V12.25C14.5 12.4489 14.579 12.6397 14.7197 12.7804L17.7197 15.7804C17.9342 15.9949 18.2568 16.059 18.537 15.9429C18.8173 15.8268 19 15.5534 19 15.25V4.75002Z"/>
</svg>

<svg xmlns="http://www.w3.org/2000/svg" viewBox="0 0 20 20" fill="currentColor" aria-hidden="true">
  <path d="M3.25 4A2.25 2.25 0 001 6.25v7.5A2.25 2.25 0 003.25 16h7.5A2.25 2.25 0 0013 13.75v-7.5A2.25 2.25 0 0010.75 4h-7.5zM19 4.75a.75.75 0 00-1.28-.53l-3 3a.75.75 0 00-.22.53v4.5c0 .199.079.39.22.53l3 3a.75.75 0 001.28-.53V4.75z"/>
</svg>
